svgs/pushbullet.svg

<svg width="192" height="192" viewBox="0 0 192 192" fill="none" xmlns="http://www.w3.org/2000/svg">
<path d="M30 37C30 34.7909 31.7909 33 34 33H50C52.2091 33 54 34.7909 54 37V153C54 155.209 52.2091 157 50 157H34C31.7909 157 30 155.209 30 153V37Z" stroke="black" stroke-width="12"/>
<path d="M78 37C78 34.7909 79.7909 33 82 33H116C150.242 33 178 60.7583 178 95V95C178 129.242 150.242 157 116 157H82C79.7909 157 78 155.209 78 153V37Z" stroke="black" stroke-width="12"/>
</svg>

<svg width="192" height="192" viewBox="0 0 192 192" fill="none" xmlns="http://www.w3.org/2000/svg"><path d="M30 37a4 4 0 0 1 4-4h16a4 4 0 0 1 4 4v116a4 4 0 0 1-4 4H34a4 4 0 0 1-4-4V37ZM78 37a4 4 0 0 1 4-4h34c34.242 0 62 27.758 62 62 0 34.242-27.758 62-62 62H82a4 4 0 0 1-4-4V37Z" stroke="#000" stroke-width="12"/></svg>
